svg/u1f519.svg

<svg viewBox="0 0 128 128" xmlns="http://www.w3.org/2000/svg">
  <g>
    <path d="M116,4H12c-4.4,0-8,3.6-8,8v104c0,4.4,3.6,8,8,8h104c4.4,0,8-3.6,8-8V12C124,7.6,120.4,4,116,4z" fill="#427687"/>
    <path d="M109.7,4H11.5C7.4,4,4,7.4,4,11.5v97.9c0,4.2,3.4,7.5,7.5,7.5h98.1c4.2,0,7.5-3.4,7.5-7.5V11.5 C117.3,7.4,113.8,4,109.7,4z" fill="#8CAFBF"/>
  </g>
  <path d="M39.7,12.9c0-2.3-1.6-3-10.8-2.7c-7.7,0.3-11.5,1.2-13.8,4 s-2.9,8.5-3,15.3c0,4.8,0,9.3,2.5,9.3c3.4,0,3.4-7.9,6.2-12.3C26.2,17.8,39.7,15.9,39.7,12.9z" opacity="0.5" fill="#B4E1ED" enable-background="new "/>
  <path d="M47.4,71l-24-24c-1.8-1.6-1.8-4.4,0-6l24-24c2.6-2.3,6.6-0.4,6.6,3v14c0,1.1,0.9,2,2,2h46 c2.2,0,4,1.8,4,4v8c0,2.2-1.8,4-4,4H56c-1.1,0-2,0.9-2,2v14C54,71.4,50,73.3,47.4,71z" fill="#FAFAFA"/>
  <g>
    <path d="M14,110.9V85.4c0-0.6,0.5-1,1-1h8.4c3.1,0,5.5,0.6,7.1,1.9c1.6,1.2,2.4,3.1,2.4,5.6 c0,1.3-0.3,2.4-1,3.4s-1.7,1.8-3,2.3c1.5,0.4,2.6,1.2,3.4,2.3c0.8,1.1,1.2,2.4,1.2,4c0,2.6-0.8,4.6-2.5,6s-4,2.1-7.1,2.1h-9 C14.4,111.9,14,111.5,14,110.9z M18.8,95c0,0.6,0.5,1,1,1h3.7c1.5,0,2.6-0.3,3.5-1s1.3-1.6,1.3-2.9c0-1.4-0.4-2.3-1.2-2.9 s-2-0.9-3.6-0.9h-3.6c-0.6,0-1,0.4-1,1L18.8,95L18.8,95z M18.8,100.5v6.6c0,0.6,0.5,1,1,1h4.3c1.5,0,2.7-0.4,3.5-1.1 s1.3-1.8,1.3-3.1c0-2.8-1.5-4.3-4.4-4.4h-4.7C19.2,99.5,18.8,99.9,18.8,100.5z" fill="#FAFAFA"/>
    <path d="M53.1,105.5h-9.2c-0.4,0-0.8,0.3-1,0.7l-1.8,5.1c-0.1,0.4-0.5,0.7-1,0.7h-2.8 c-0.7,0-1.2-0.7-0.9-1.4L46.1,85c0.2-0.4,0.5-0.7,0.9-0.7h3c0.4,0,0.8,0.3,0.9,0.7l9.6,25.5c0.2,0.7-0.2,1.4-0.9,1.4h-2.8 c-0.4,0-0.8-0.3-1-0.7l-1.8-5.1C53.9,105.8,53.5,105.5,53.1,105.5z M45.9,101.6H51c0.7,0,1.2-0.7,1-1.3L49.5,93 c-0.3-0.9-1.6-0.9-1.9,0l-2.6,7.3C44.7,101,45.2,101.6,45.9,101.6z" fill="#FAFAFA"/>
    <path d="M83.6,102.9c0.6,0,1.1,0.6,1,1.2c-0.4,2.4-1.5,4.2-3.1,5.7c-1.9,1.7-4.4,2.5-7.5,2.5 c-2.2,0-4.1-0.5-5.8-1.6s-3-2.5-3.9-4.4s-1.4-4.1-1.4-6.7V97c0-2.6,0.5-4.9,1.4-6.9s2.2-3.5,4-4.6c1.7-1.1,3.7-1.6,6-1.6 c3,0,5.5,0.8,7.3,2.5c1.6,1.4,2.6,3.3,3.1,5.8c0.1,0.6-0.4,1.2-1,1.2H81c-0.5,0-0.9-0.3-1-0.8c-0.3-1.6-0.8-2.7-1.6-3.5 c-0.9-0.9-2.3-1.3-4.1-1.3c-2.1,0-3.7,0.8-4.8,2.3c-1.1,1.5-1.7,3.8-1.7,6.7v2.4c0,3,0.5,5.2,1.6,6.8c1.1,1.6,2.6,2.3,4.7,2.3 c1.9,0,3.3-0.4,4.2-1.3c0.8-0.7,1.4-1.9,1.7-3.4c0.1-0.5,0.5-0.8,1-0.8C80.9,102.9,83.6,102.9,83.6,102.9z" fill="#FAFAFA"/>
    <path d="M96.1,100.9l-2,2.1c-0.2,0.2-0.3,0.4-0.3,0.7v7.2c0,0.6-0.4,1-1,1H90c-0.6,0-1-0.4-1-1V85.4 c0-0.6,0.4-1,1-1h2.8c0.6,0,1,0.4,1,1v9.1c0,0.9,1.2,1.4,1.8,0.6l0.8-1.1l7.8-9.3c0.2-0.2,0.5-0.4,0.8-0.4h3.2c0.9,0,1.3,1,0.8,1.7 l-8.3,9.9c-0.3,0.3-0.3,0.9-0.1,1.2l9.2,13.1c0.5,0.7,0,1.6-0.8,1.6h-3.2c-0.3,0-0.6-0.2-0.8-0.4L97.7,101 C97.3,100.5,96.6,100.5,96.1,100.9z" fill="#FAFAFA"/>
  </g>
</svg>

<svg viewBox="0 0 128 128" xmlns="http://www.w3.org/2000/svg">
  <defs/>
  <path d="M116,4 L12,4 C7.6,4 4,7.6 4,12 L4,116 C4,120.4 7.6,124 12,124 L116,124 C120.4,124 124,120.4 124,116 L124,12 C124,7.6 120.4,4 116,4 Z" fill="#427687"/>
  <path d="M109.7,4 L11.5,4 C7.4,4 4,7.4 4,11.5 L4,109.4 C4,113.6 7.4,116.9 11.5,116.9 L109.6,116.9 C113.8,116.9 117.1,113.5 117.1,109.4 L117.1,11.5 C117.3,7.4 113.8,4 109.7,4 Z" fill="#8CAFBF"/>
  <path d="M39.7,12.9 C39.7,10.6 38.1,9.9 28.9,10.2 C21.2,10.5 17.4,11.4 15.1,14.2 C12.8,17 12.2,22.7 12.1,29.5 C12.1,34.3 12.1,38.8 14.6,38.8 C18,38.8 18,30.9 20.8,26.5 C26.2,17.8 39.7,15.9 39.7,12.9 Z" fill="#B4E1ED" opacity="0.5"/>
  <path d="M47.4,71 L23.4,47 C21.6,45.4 21.6,42.6 23.4,41 L47.4,17 C50,14.7 54,16.6 54,20 L54,34 C54,35.1 54.9,36 56,36 L102,36 C104.2,36 106,37.8 106,40 L106,48 C106,50.2 104.2,52 102,52 L56,52 C54.9,52 54,52.9 54,54 L54,68 C54,71.4 50,73.3 47.4,71 Z" fill="#FAFAFA"/>
  <path d="M14,110.9 L14,85.4 C14,84.8 14.5,84.4 15,84.4 L23.4,84.4 C26.5,84.4 28.9,85 30.5,86.3 C32.1,87.5 32.9,89.4 32.9,91.9 C32.9,93.2 32.6,94.3 31.9,95.3 C31.2,96.3 30.2,97.1 28.9,97.6 C30.4,98 31.5,98.8 32.3,99.9 C33.1,101 33.5,102.3 33.5,103.9 C33.5,106.5 32.7,108.5 31,109.9 C29.3,111.3 27,112 23.9,112 L14.9,112 C14.4,111.9 14,111.5 14,110.9 Z M18.8,95 C18.8,95.6 19.3,96 19.8,96 L23.5,96 C25,96 26.1,95.7 27,95 C27.9,94.3 28.3,93.4 28.3,92.1 C28.3,90.7 27.9,89.8 27.1,89.2 C26.3,88.6 25.1,88.3 23.5,88.3 L19.9,88.3 C19.3,88.3 18.9,88.7 18.9,89.3 L18.8,95 L18.8,95 Z M18.8,100.5 L18.8,107.1 C18.8,107.7 19.3,108.1 19.8,108.1 L24.1,108.1 C25.6,108.1 26.8,107.7 27.6,107 C28.4,106.3 28.9,105.2 28.9,103.9 C28.9,101.1 27.4,99.6 24.5,99.5 L19.8,99.5 C19.2,99.5 18.8,99.9 18.8,100.5 Z" fill="#FAFAFA"/>
  <path d="M53.1,105.5 L43.9,105.5 C43.5,105.5 43.1,105.8 42.9,106.2 L41.1,111.3 C41,111.7 40.6,112 40.1,112 L37.3,112 C36.6,112 36.1,111.3 36.4,110.6 L46.1,85 C46.3,84.6 46.6,84.3 47,84.3 L50,84.3 C50.4,84.3 50.8,84.6 50.9,85 L60.5,110.5 C60.7,111.2 60.3,111.9 59.6,111.9 L56.8,111.9 C56.4,111.9 56,111.6 55.8,111.2 L54,106.1 C53.9,105.8 53.5,105.5 53.1,105.5 Z M45.9,101.6 L51,101.6 C51.7,101.6 52.2,100.9 52,100.3 L49.5,93 C49.2,92.1 47.9,92.1 47.6,93 L45,100.3 C44.7,101 45.2,101.6 45.9,101.6 Z" fill="#FAFAFA"/>
  <path d="M83.6,102.9 C84.2,102.9 84.7,103.5 84.6,104.1 C84.2,106.5 83.1,108.3 81.5,109.8 C79.6,111.5 77.1,112.3 74,112.3 C71.8,112.3 69.9,111.8 68.2,110.7 C66.5,109.6 65.2,108.2 64.3,106.3 C63.4,104.4 62.9,102.2 62.9,99.6 L62.9,97 C62.9,94.4 63.4,92.1 64.3,90.1 C65.2,88.1 66.5,86.6 68.3,85.5 C70,84.4 72,83.9 74.3,83.9 C77.3,83.9 79.8,84.7 81.6,86.4 C83.2,87.8 84.2,89.7 84.7,92.2 C84.8,92.8 84.3,93.4 83.7,93.4 L81,93.4 C80.5,93.4 80.1,93.1 80,92.6 C79.7,91 79.2,89.9 78.4,89.1 C77.5,88.2 76.1,87.8 74.3,87.8 C72.2,87.8 70.6,88.6 69.5,90.1 C68.4,91.6 67.8,93.9 67.8,96.8 L67.8,99.2 C67.8,102.2 68.3,104.4 69.4,106 C70.5,107.6 72,108.3 74.1,108.3 C76,108.3 77.4,107.9 78.3,107 C79.1,106.3 79.7,105.1 80,103.6 C80.1,103.1 80.5,102.8 81,102.8 C80.9,102.9 83.6,102.9 83.6,102.9 Z" fill="#FAFAFA"/>
  <path d="M96.1,100.9 L94.1,103 C93.9,103.2 93.8,103.4 93.8,103.7 L93.8,110.9 C93.8,111.5 93.4,111.9 92.8,111.9 L90,111.9 C89.4,111.9 89,111.5 89,110.9 L89,85.4 C89,84.8 89.4,84.4 90,84.4 L92.8,84.4 C93.4,84.4 93.8,84.8 93.8,85.4 L93.8,94.5 C93.8,95.4 95,95.9 95.6,95.1 L96.4,94 L104.2,84.7 C104.4,84.5 104.7,84.3 105,84.3 L108.2,84.3 C109.1,84.3 109.5,85.3 109,86 L100.7,95.9 C100.4,96.2 100.4,96.8 100.6,97.1 L109.8,110.2 C110.3,110.9 109.8,111.8 109,111.8 L105.8,111.8 C105.5,111.8 105.2,111.6 105,111.4 L97.7,101 C97.3,100.5 96.6,100.5 96.1,100.9 Z" fill="#FAFAFA"/>
</svg>
